app/assets/v2/images/hackathon/onboarding_v2/icon-04-meet.svg

<svg width="68" height="68" fill="none" xmlns="http://www.w3.org/2000/svg"><path d="M34 46.75v14.875M25.5 53.125l8.5-8.5 8.5 8.5M34 25.5V10.625M42.5 19.125l-8.5 8.5-8.5-8.5M44.625 36.125H59.5M51 44.625l-8.5-8.5 8.5-8.5M23.375 36.125H8.5M17 27.625l8.5 8.5-8.5 8.5" stroke="#6F3FF5" stroke-width="2" stroke-miterlimit="10" stroke-linecap="round"/></svg>

<svg width="68" height="68" viewBox="0 0 68 68" fill="none" xmlns="http://www.w3.org/2000/svg">
<path d="M34 46.75V61.625" stroke="#6F3FF5" stroke-width="2" stroke-miterlimit="10" stroke-linecap="round"/>
<path d="M25.5 53.125L34 44.625L42.5 53.125" stroke="#6F3FF5" stroke-width="2" stroke-miterlimit="10" stroke-linecap="round"/>
<path d="M34 25.5V10.625" stroke="#6F3FF5" stroke-width="2" stroke-miterlimit="10" stroke-linecap="round"/>
<path d="M42.5 19.125L34 27.625L25.5 19.125" stroke="#6F3FF5" stroke-width="2" stroke-miterlimit="10" stroke-linecap="round"/>
<path d="M44.625 36.125H59.5" stroke="#6F3FF5" stroke-width="2" stroke-miterlimit="10" stroke-linecap="round"/>
<path d="M51 44.625L42.5 36.125L51 27.625" stroke="#6F3FF5" stroke-width="2" stroke-miterlimit="10" stroke-linecap="round"/>
<path d="M23.375 36.125H8.5" stroke="#6F3FF5" stroke-width="2" stroke-miterlimit="10" stroke-linecap="round"/>
<path d="M17 27.625L25.5 36.125L17 44.625" stroke="#6F3FF5" stroke-width="2" stroke-miterlimit="10" stroke-linecap="round"/>
</svg>
